X:56
T:Broken Pledge, The
R:reel
D:De Dannan: Selected Reels and Jigs.
Z:Also played in Edor, see #734
Z:id:hn-reel-56
M:C|
K:Ddor
dcAG ADDB|cAGF ECCE|D2 (3EFG Addc|AcGc Aefe|
dcAG FGAB|c2Bd cAGE|D2 (3EFG AddB|cAGE FDD2:|
|:dcAG Acde|~f3d ecAB|cAGE GAcd|ec~c2 eage|
dcAG Acde|fedf ecAG|~F3G AddB|cAGE FDD2:|
P:Variations:
|:dcAG ~A3B|cAGF ECCE|DEFG Addc|(3ABc Gc Aefe|
dcAG FGAB|c2Bd cAGE|DEFG AddB|A2GE FDD2:|
|:dcAG Acde|~f3d ecAB|cAGE GAcd|ec~c2 eage|
dcAG Acde|~f3d ecAG|FEFG AddB|A2GE FDD2:|
<end>
<start>
